X:1
L:1/4
M:2/2
K:F
 F |""F"" F F F F |""F"" F2 C2 |""Bb"" D2""C"" E2 |""F"" F2 z :| F |""F"" A A A A |""Bb"" B2 B2 |""C"" G2 G2 | 
""Am"" c2 z c |""Dm"" F F F F |""Gm"" G2 G2 |""C"" E2 E2 |""F"" F2 z |]
